img/decor/instagram-logo.svg

<svg width="32" height="32" viewBox="0 0 32 32" fill="none" xmlns="http://www.w3.org/2000/svg">
<path d="M20.92 16C20.92 17.3155 20.3974 18.5771 19.4673 19.5072C18.5371 20.4374 17.2755 20.96 15.96 20.96C14.6445 20.96 13.3829 20.4374 12.4528 19.5072C11.5226 18.5771 11 17.3155 11 16C11.001 15.6158 11.048 15.233 11.14 14.86H10.24V21.7H21.64V14.86H20.74C20.8406 15.2325 20.901 15.6147 20.92 16Z" fill="white"/>
<path d="M16 18.66C16.5252 18.656 17.0375 18.4967 17.4723 18.202C17.9071 17.9073 18.245 17.4905 18.4432 17.0042C18.6415 16.5178 18.6913 15.9836 18.5864 15.4689C18.4816 14.9542 18.2266 14.4821 17.8539 14.1121C17.4811 13.7421 17.0071 13.4908 16.4916 13.3897C15.9762 13.2887 15.4424 13.3425 14.9575 13.5445C14.4726 13.7464 14.0584 14.0873 13.7669 14.5243C13.4755 14.9613 13.32 15.4748 13.32 16C13.3213 16.3506 13.3917 16.6976 13.5271 17.021C13.6625 17.3444 13.8602 17.638 14.1091 17.8851C14.358 18.1321 14.653 18.3276 14.9775 18.4606C15.3019 18.5936 15.6494 18.6613 16 18.66Z" fill="white"/>
<path d="M21.68 10.3H18.64V13.34H21.68V10.3Z" fill="white"/>
<path d="M16 0C12.8355 0 9.74207 0.938384 7.11088 2.69649C4.4797 4.45459 2.42894 6.95345 1.21793 9.87706C0.0069325 12.8007 -0.309921 16.0177 0.307443 19.1214C0.924806 22.2251 2.44866 25.0761 4.6863 27.3137C6.92394 29.5513 9.77487 31.0752 12.8786 31.6926C15.9823 32.3099 19.1993 31.9931 22.1229 30.7821C25.0466 29.5711 27.5454 27.5203 29.3035 24.8891C31.0616 22.2579 32 19.1645 32 16C32 11.7565 30.3143 7.68687 27.3137 4.68629C24.3131 1.68571 20.2435 0 16 0ZM24 21.7C24.0027 22.0045 23.9444 22.3064 23.8285 22.588C23.7127 22.8696 23.5416 23.1251 23.3253 23.3395C23.1091 23.5539 22.8521 23.7228 22.5695 23.8362C22.2869 23.9497 21.9845 24.0054 21.68 24H10.28C9.97928 23.9987 9.68175 23.9382 9.40442 23.8219C9.12709 23.7056 8.87537 23.5358 8.66366 23.3222C8.45194 23.1086 8.28436 22.8554 8.17049 22.5771C8.05662 22.2988 7.99869 22.0007 8.00001 21.7V10.3C7.99869 9.99927 8.05662 9.70123 8.17049 9.42289C8.28436 9.14455 8.45194 8.89137 8.66366 8.67779C8.87537 8.46422 9.12709 8.29443 9.40442 8.17814C9.68175 8.06184 9.97928 8.00131 10.28 8H21.67C21.9749 7.99467 22.2778 8.0503 22.561 8.16362C22.8441 8.27694 23.1017 8.44568 23.3188 8.65992C23.5358 8.87416 23.7079 9.12959 23.8249 9.41123C23.9418 9.69287 24.0014 9.99504 24 10.3V21.7Z" fill="white"/>
</svg>

<svg width="32" height="32" fill="none" xmlns="http://www.w3.org/2000/svg"><path d="M20.92 16a4.96 4.96 0 11-9.78-1.14h-.9v6.84h11.4v-6.84h-.9c.1.37.16.75.18 1.14z" fill="#fff"/><path d="M16 18.66a2.66 2.66 0 10-.04-5.32 2.66 2.66 0 00.04 5.32zM21.68 10.3h-3.04v3.04h3.04V10.3z" fill="#fff"/><path d="M16 0a16 16 0 100 32 16 16 0 000-32zm8 21.7a2.28 2.28 0 01-2.32 2.3h-11.4A2.29 2.29 0 018 21.7V10.3A2.29 2.29 0 0110.28 8h11.39A2.3 2.3 0 0124 10.3v11.4z" fill="#fff"/></svg>
